public/nav-logo.svg

<svg xmlns="http://www.w3.org/2000/svg" xml:space="preserve" style="fill-rule:evenodd;clip-rule:evenodd;stroke-linejoin:round;stroke-miterlimit:2" viewBox="0 0 36 36"><path d="M133.713 261.402a17.67 17.67 0 0 1 12.53-5.187 17.66 17.66 0 0 1 12.504 5.164l.013-11.799a27.25 27.25 0 0 0-12.517-3.023c-4.511 0-8.791 1.227-12.544 3.161z" style="fill:#f26521;fill-rule:nonzero" transform="translate(-76.942 -159.563)scale(.64716)"/><path d="M158.76 206.671a17.66 17.66 0 0 1-12.528 5.189 17.67 17.67 0 0 1-12.505-5.164l-.014 11.799a27.3 27.3 0 0 0 12.519 3.022c4.511 0 8.768-1.091 12.519-3.022z" style="fill:#efa715;fill-rule:nonzero" transform="translate(-76.942 -107.938)scale(.64716)"/><path d="M133.738 246.547a17.66 17.66 0 0 1-5.19-12.527c0-4.883 1.974-9.301 5.165-12.506l-11.8-.013a27.3 27.3 0 0 0-3.022 12.519c0 4.51 1.091 8.767 3.024 12.518z" style="fill:#5b57a6;fill-rule:nonzero" transform="translate(-76.942 -133.734)scale(.64716)"/><path d="M158.753 221.535a17.66 17.66 0 0 1 5.19 12.53c0 4.881-1.974 9.3-5.166 12.503l11.801.013a27.25 27.25 0 0 0 3.022-12.516c0-4.512-1.09-8.769-3.024-12.521z" style="fill:#009283;fill-rule:nonzero" transform="translate(-76.942 -133.778)scale(.64716)"/></svg>

<?xml version="1.0" encoding="UTF-8" standalone="no"?>
<!DOCTYPE svg PUBLIC "-//W3C//DTD SVG 1.1//EN" "http://www.w3.org/Graphics/SVG/1.1/DTD/svg11.dtd">
<svg width="100%" height="100%" viewBox="0 0 36 36" version="1.1" xmlns="http://www.w3.org/2000/svg" xmlns:xlink="http://www.w3.org/1999/xlink" xml:space="preserve" xmlns:serif="http://www.serif.com/" style="fill-rule:evenodd;clip-rule:evenodd;stroke-linejoin:round;stroke-miterlimit:2;">
    <g transform="matrix(1,0,0,1,-48.1365,-31.424)">
        <g>
            <g transform="matrix(0.647164,0,0,0.647164,-28.8056,-128.139)">
                <path d="M133.713,261.402C136.92,258.196 141.35,256.215 146.243,256.215C151.125,256.215 155.544,258.188 158.747,261.379L158.76,249.58C155.01,247.647 150.752,246.557 146.243,246.557C141.732,246.557 137.452,247.784 133.699,249.718L133.713,261.402Z" style="fill:rgb(242,101,33);fill-rule:nonzero;"/>
            </g>
            <g transform="matrix(0.647164,0,0,0.647164,-28.8056,-76.514)">
                <path d="M158.76,206.671C155.555,209.877 151.126,211.86 146.232,211.86C141.353,211.86 136.932,209.887 133.727,206.696L133.713,218.495C137.467,220.426 141.721,221.517 146.232,221.517C150.743,221.517 155,220.426 158.751,218.495L158.76,206.671Z" style="fill:rgb(239,167,21);fill-rule:nonzero;"/>
            </g>
            <g transform="matrix(0.647164,0,0,0.647164,-28.8056,-102.31)">
                <path d="M133.738,246.547C130.532,243.341 128.548,238.913 128.548,234.02C128.548,229.137 130.522,224.719 133.713,221.514L121.913,221.501C119.982,225.252 118.891,229.508 118.891,234.02C118.891,238.53 119.982,242.787 121.915,246.538L133.738,246.547Z" style="fill:rgb(91,87,166);fill-rule:nonzero;"/>
            </g>
            <g transform="matrix(0.647164,0,0,0.647164,-28.8056,-102.354)">
                <path d="M158.753,221.535C161.96,224.74 163.943,229.172 163.943,234.065C163.943,238.946 161.969,243.365 158.777,246.568L170.578,246.581C172.51,242.831 173.6,238.574 173.6,234.065C173.6,229.553 172.51,225.296 170.576,221.544L158.753,221.535Z" style="fill:rgb(0,146,131);fill-rule:nonzero;"/>
            </g>
        </g>
    </g>
</svg>
